icons/2_Variations/HYGH bg.var.svg

<svg xmlns="http://www.w3.org/2000/svg" viewBox="0 0 1024 1024">
   <circle cx="512" cy="512" r="512" style="fill:#00acd6"/>
   <path d="M315.4 297c-7.2 6.9-11.3 16.5-11.4 26.4v165.9h177.8v-140c-39.5-19.9-78-38.9-116.5-58.8-16.5-7.5-35.9-5-49.9 6.5zm438.4 188.8c-4.6-3.5-9.7-6.4-15.1-8.6l-196.6-96.6v261.6l199.6-98.5c4.3-1.7 8.3-4 12.1-6.7 7.9-6.2 12.4-15.7 12.3-25.7.6-10.1-4-19.7-12.3-25.5zm-451.6 55.8v161.2c.5 14 9.4 26.3 22.5 31.3 12.6 5.8 27.1 5.8 39.7 0 39.5-19.7 78-39.8 117.7-59.8V542.6H302.3v-1z" style="fill:#fff"/>
</svg>

<svg width="1024" height="1024" viewBox="0 0 1024 1024" fill="none" xmlns="http://www.w3.org/2000/svg">
<g clip-path="url(#clip0_3_119)">
<path d="M512 1024C794.77 1024 1024 794.77 1024 512C1024 229.23 794.77 0 512 0C229.23 0 0 229.23 0 512C0 794.77 229.23 1024 512 1024Z" fill="#73ADA4"/>
<path d="M315.4 297C308.2 303.9 304.1 313.5 304 323.4V489.3H481.8V349.3C442.3 329.4 403.8 310.4 365.3 290.5C348.8 283 329.4 285.5 315.4 297ZM753.8 485.8C749.2 482.3 744.1 479.4 738.7 477.2L542.1 380.6V642.2L741.7 543.7C746 542 750 539.7 753.8 537C761.7 530.8 766.2 521.3 766.1 511.3C766.7 501.2 762.1 491.6 753.8 485.8ZM302.2 541.6V702.8C302.7 716.8 311.6 729.1 324.7 734.1C337.3 739.9 351.8 739.9 364.4 734.1C403.9 714.4 442.4 694.3 482.1 674.3V542.6H302.3V541.6H302.2Z" fill="white"/>
</g>
<defs>
<clipPath id="clip0_3_119">
<rect width="1024" height="1024" fill="white"/>
</clipPath>
</defs>
</svg>
